assets/img/alias/orbix360.svg

<svg width="72" height="71" viewBox="0 0 72 71" fill="none" xmlns="http://www.w3.org/2000/svg">
<path d="M35.5713 60.9383C50.1033 60.9383 61.8838 49.2168 61.8838 34.7576C61.8838 20.2983 50.1033 8.57678 35.5713 8.57678C21.0393 8.57678 9.25879 20.2983 9.25879 34.7576C9.25879 49.2168 21.0393 60.9383 35.5713 60.9383Z" fill="#2F79BD"/>
<g opacity="0.3">
<path opacity="0.3" d="M59.1356 10.2994H12.27V56.9304H59.1356V10.2994Z" fill="url(#paint0_linear)"/>
<g opacity="0.3">
<g opacity="0.3">
<path opacity="0.3" d="M69.3181 2.4342H2.10645V58.073H69.3181V2.4342Z" fill="url(#paint1_linear)"/>
<g opacity="0.3">
<path opacity="0.3" d="M35.6464 56.9304C31.0142 56.9193 26.4893 55.5424 22.6432 52.9737C18.7971 50.405 15.8025 46.7598 14.0376 42.4985C12.2727 38.2371 11.8167 33.551 12.7272 29.0319C13.6377 24.5128 15.8739 20.3637 19.1533 17.1086C22.4327 13.8535 26.6081 11.6384 31.152 10.7434C35.696 9.84827 40.4047 10.3133 44.6832 12.0796C48.9617 13.8459 52.618 16.8344 55.1904 20.6673C57.7627 24.5003 59.1356 29.0059 59.1356 33.6149C59.1381 36.6821 58.5319 39.7197 57.3516 42.5532C56.1713 45.3868 54.4403 47.9605 52.2579 50.1268C50.0755 52.2931 47.4846 54.0092 44.634 55.1768C41.7833 56.3443 38.729 56.9402 35.6464 56.9304Z" fill="url(#paint2_linear)"/>
</g>
</g>
</g>
</g>
<path d="M35.9286 1.49768C29.228 1.49768 22.6779 3.47469 17.1065 7.1787C11.5352 10.8827 7.19289 16.1474 4.62869 22.3069C2.06448 28.4664 1.39357 35.2442 2.70079 41.7832C4.00801 48.3221 7.23465 54.3285 11.9727 59.0428C16.7107 63.7571 22.7473 66.9676 29.3192 68.2683C35.891 69.569 42.7029 68.9014 48.8934 66.35C55.084 63.7987 60.3751 59.4781 64.0977 53.9346C67.8204 48.3912 69.8074 41.8739 69.8074 35.2068C69.8074 26.2666 66.238 17.6926 59.8845 11.3709C53.531 5.04917 44.9138 1.49768 35.9286 1.49768ZM36.1544 53.9341C32.0022 53.9341 27.9433 52.7085 24.4913 50.4125C21.0394 48.1164 18.3496 44.853 16.7623 41.0353C15.1751 37.2176 14.7617 33.0173 15.5745 28.9657C16.3873 24.9142 18.3897 21.1936 21.3284 18.2749C24.2672 15.3561 28.01 13.3704 32.0834 12.5689C36.1568 11.7675 40.3775 12.1863 44.2116 13.7725C48.0456 15.3587 51.3205 18.0408 53.622 21.4796C55.9234 24.9184 57.1479 28.9592 57.1404 33.0907C57.1404 38.6286 54.9294 43.9398 50.9938 47.8557C47.0581 51.7716 41.7203 53.9716 36.1544 53.9716V53.9341Z" fill="white"/>
<path d="M35.9286 70.2648C28.9459 70.2611 22.1211 68.1975 16.317 64.3349C10.5129 60.4722 5.99014 54.984 3.32055 48.564C0.650969 42.1441 -0.0455856 35.0807 1.31895 28.267C2.68349 21.4532 6.04785 15.1949 10.9867 10.2834C15.9255 5.37196 22.217 2.02778 29.0658 0.673707C35.9146 -0.680368 43.0132 0.0164631 49.464 2.6761C55.9148 5.33574 61.4282 9.83876 65.3072 15.6158C69.1862 21.3929 71.2566 28.1847 71.2566 35.1324C71.2466 44.4503 67.5208 53.3835 60.8971 59.9704C54.2734 66.5574 45.2934 70.2599 35.9286 70.2648ZM35.9286 3.0151C29.5444 3.0151 23.3036 4.89875 17.9954 8.42785C12.6871 11.9569 8.54985 16.973 6.10673 22.8417C3.66361 28.7103 3.02439 35.1681 4.26987 41.3982C5.51536 47.6283 8.58963 53.3511 13.1039 57.8428C17.6182 62.3345 23.3698 65.3934 29.6313 66.6326C35.8928 67.8719 42.383 67.2358 48.2812 64.805C54.1794 62.3741 59.2207 58.2575 62.7675 52.9758C66.3144 47.6942 68.2075 41.4846 68.2075 35.1324C68.2025 26.6159 64.8001 18.4496 58.7477 12.4275C52.6953 6.40544 44.4879 3.02007 35.9286 3.0151Z" fill="black"/>
<path d="M36.1545 49.7957C45.4267 49.7957 52.9433 42.3168 52.9433 33.091C52.9433 23.8652 45.4267 16.3862 36.1545 16.3862C26.8823 16.3862 19.3657 23.8652 19.3657 33.091C19.3657 42.3168 26.8823 49.7957 36.1545 49.7957Z" fill="black"/>
<path d="M36.1545 49.7957C45.4267 49.7957 52.9433 42.3168 52.9433 33.091C52.9433 23.8652 45.4267 16.3862 36.1545 16.3862C26.8823 16.3862 19.3657 23.8652 19.3657 33.091C19.3657 42.3168 26.8823 49.7957 36.1545 49.7957Z" fill="black"/>
<path d="M41.8013 29.3078C44.1818 29.3078 46.1115 27.3878 46.1115 25.0193C46.1115 22.6508 44.1818 20.7307 41.8013 20.7307C39.4209 20.7307 37.4912 22.6508 37.4912 25.0193C37.4912 27.3878 39.4209 29.3078 41.8013 29.3078Z" fill="white"/>
<path opacity="0.35" d="M43.9086 32.2481C45.6341 32.2481 47.0329 30.8563 47.0329 29.1394C47.0329 27.4225 45.6341 26.0306 43.9086 26.0306C42.183 26.0306 40.7842 27.4225 40.7842 29.1394C40.7842 30.8563 42.183 32.2481 43.9086 32.2481Z" fill="white"/>
<defs>
<linearGradient id="paint0_linear" x1="12.27" y1="56.9304" x2="58.9004" y2="10.0654" gradientUnits="userSpaceOnUse">
<stop stop-color="white" stop-opacity="0"/>
<stop offset="0.13" stop-color="white" stop-opacity="0.13"/>
<stop offset="0.3" stop-color="white" stop-opacity="0.26"/>
<stop offset="0.47" stop-color="white" stop-opacity="0.37"/>
<stop offset="0.64" stop-color="white" stop-opacity="0.44"/>
<stop offset="0.81" stop-color="white" stop-opacity="0.49"/>
<stop offset="1" stop-color="white" stop-opacity="0.5"/>
</linearGradient>
<linearGradient id="paint1_linear" x1="1728.1" y1="3208.34" x2="3515.48" y2="1049.19" gradientUnits="userSpaceOnUse">
<stop stop-color="white" stop-opacity="0"/>
<stop offset="0.13" stop-color="white" stop-opacity="0.129"/>
<stop offset="0.3" stop-color="white" stop-opacity="0.259"/>
<stop offset="0.47" stop-color="white" stop-opacity="0.369"/>
<stop offset="0.64" stop-color="white" stop-opacity="0.439"/>
<stop offset="0.81" stop-color="white" stop-opacity="0.49"/>
<stop offset="1" stop-color="white" stop-opacity="0.502"/>
</linearGradient>
<linearGradient id="paint2_linear" x1="1569.61" y1="2429.52" x2="2390.78" y2="1604.22" gradientUnits="userSpaceOnUse">
<stop stop-color="white" stop-opacity="0"/>
<stop offset="0.13" stop-color="white" stop-opacity="0.129"/>
<stop offset="0.3" stop-color="white" stop-opacity="0.259"/>
<stop offset="0.47" stop-color="white" stop-opacity="0.369"/>
<stop offset="0.64" stop-color="white" stop-opacity="0.439"/>
<stop offset="0.81" stop-color="white" stop-opacity="0.49"/>
<stop offset="1" stop-color="white" stop-opacity="0.502"/>
</linearGradient>
</defs>
</svg>

<svg width="72" height="71" fill="none" xmlns="http://www.w3.org/2000/svg"><path d="M35.571 60.938c14.532 0 26.313-11.721 26.313-26.18 0-14.46-11.78-26.181-26.313-26.181-14.532 0-26.312 11.721-26.312 26.18 0 14.46 11.78 26.181 26.312 26.181Z" fill="#2F79BD"/><g opacity=".3"><path opacity=".3" d="M59.136 10.3H12.27v46.63h46.866V10.3Z" fill="url(#a)"/><g opacity=".3"><path opacity=".3" d="M69.318 2.434H2.106v55.639h67.212V2.434Z" fill="url(#b)"/><path opacity=".3" d="M35.646 56.93a23.516 23.516 0 0 1-13.003-3.956 23.34 23.34 0 0 1-8.605-10.475 23.208 23.208 0 0 1-1.31-13.467 23.28 23.28 0 0 1 6.425-11.923 23.47 23.47 0 0 1 11.999-6.366 23.542 23.542 0 0 1 13.531 1.337 23.408 23.408 0 0 1 10.507 8.587 23.233 23.233 0 0 1 2.162 21.886 23.29 23.29 0 0 1-5.094 7.574 23.424 23.424 0 0 1-7.624 5.05 23.519 23.519 0 0 1-8.988 1.753Z" fill="url(#c)"/></g></g><path d="M35.929 1.498a34 34 0 0 0-18.823 5.68A33.747 33.747 0 0 0 4.63 22.308 33.552 33.552 0 0 0 2.7 41.783a33.657 33.657 0 0 0 9.272 17.26 33.932 33.932 0 0 0 17.346 9.225 34.036 34.036 0 0 0 19.574-1.918 33.841 33.841 0 0 0 15.205-12.415 33.589 33.589 0 0 0 5.71-18.728c0-8.94-3.57-17.514-9.924-23.836A33.965 33.965 0 0 0 35.93 1.498Zm.225 52.436a21.062 21.062 0 0 1-11.663-3.521 20.904 20.904 0 0 1-7.729-9.378 20.784 20.784 0 0 1-1.188-12.07 20.849 20.849 0 0 1 5.754-10.69 21.02 21.02 0 0 1 10.755-5.706 21.085 21.085 0 0 1 12.129 1.204 20.964 20.964 0 0 1 9.41 7.707 20.806 20.806 0 0 1 3.518 11.61c0 5.539-2.21 10.85-6.146 14.766a21.04 21.04 0 0 1-14.84 6.116v-.038Z" fill="#fff"/><path d="M35.929 70.265a35.436 35.436 0 0 1-19.612-5.93A35.171 35.171 0 0 1 3.321 48.564a34.969 34.969 0 0 1-2.002-20.297 35.079 35.079 0 0 1 9.668-17.984A35.365 35.365 0 0 1 29.066.673a35.474 35.474 0 0 1 20.398 2.003 35.272 35.272 0 0 1 15.843 12.94 35.008 35.008 0 0 1 5.95 19.516 35.08 35.08 0 0 1-10.36 24.838A35.437 35.437 0 0 1 35.93 70.265Zm0-67.25a32.394 32.394 0 0 0-17.934 5.413A32.152 32.152 0 0 0 6.107 22.842 31.968 31.968 0 0 0 4.27 41.398a32.068 32.068 0 0 0 8.834 16.445 32.33 32.33 0 0 0 16.527 8.79 32.43 32.43 0 0 0 18.65-1.828 32.244 32.244 0 0 0 14.486-11.83 32.002 32.002 0 0 0 5.44-17.843 32.055 32.055 0 0 0-9.46-22.704A32.38 32.38 0 0 0 35.93 3.015Z" fill="#000"/><path d="M36.154 49.796c9.273 0 16.79-7.48 16.79-16.705 0-9.226-7.517-16.705-16.79-16.705-9.272 0-16.788 7.48-16.788 16.705 0 9.226 7.516 16.705 16.788 16.705Z" fill="#000"/><path d="M36.154 49.796c9.273 0 16.79-7.48 16.79-16.705 0-9.226-7.517-16.705-16.79-16.705-9.272 0-16.788 7.48-16.788 16.705 0 9.226 7.516 16.705 16.788 16.705Z" fill="#000"/><path d="M41.801 29.308c2.38 0 4.31-1.92 4.31-4.289 0-2.368-1.93-4.288-4.31-4.288s-4.31 1.92-4.31 4.288c0 2.369 1.93 4.289 4.31 4.289Z" fill="#fff"/><path opacity=".35" d="M43.909 32.248a3.117 3.117 0 0 0 3.124-3.109 3.117 3.117 0 0 0-3.124-3.108 3.117 3.117 0 0 0-3.125 3.108 3.117 3.117 0 0 0 3.125 3.11Z" fill="#fff"/><defs><linearGradient id="a" x1="12.27" y1="56.93" x2="58.9" y2="10.065" gradientUnits="userSpaceOnUse"><stop stop-color="#fff" stop-opacity="0"/><stop offset=".13" stop-color="#fff" stop-opacity=".13"/><stop offset=".3" stop-color="#fff" stop-opacity=".26"/><stop offset=".47" stop-color="#fff" stop-opacity=".37"/><stop offset=".64" stop-color="#fff" stop-opacity=".44"/><stop offset=".81" stop-color="#fff" stop-opacity=".49"/><stop offset="1" stop-color="#fff" stop-opacity=".5"/></linearGradient><linearGradient id="b" x1="1728.1" y1="3208.34" x2="3515.48" y2="1049.19" gradientUnits="userSpaceOnUse"><stop stop-color="#fff" stop-opacity="0"/><stop offset=".13" stop-color="#fff" stop-opacity=".129"/><stop offset=".3" stop-color="#fff" stop-opacity=".259"/><stop offset=".47" stop-color="#fff" stop-opacity=".369"/><stop offset=".64" stop-color="#fff" stop-opacity=".439"/><stop offset=".81" stop-color="#fff" stop-opacity=".49"/><stop offset="1" stop-color="#fff" stop-opacity=".502"/></linearGradient><linearGradient id="c" x1="1569.61" y1="2429.52" x2="2390.78" y2="1604.22" gradientUnits="userSpaceOnUse"><stop stop-color="#fff" stop-opacity="0"/><stop offset=".13" stop-color="#fff" stop-opacity=".129"/><stop offset=".3" stop-color="#fff" stop-opacity=".259"/><stop offset=".47" stop-color="#fff" stop-opacity=".369"/><stop offset=".64" stop-color="#fff" stop-opacity=".439"/><stop offset=".81" stop-color="#fff" stop-opacity=".49"/><stop offset="1" stop-color="#fff" stop-opacity=".502"/></linearGradient></defs></svg>
